resources/icons/20px/follower.svg

<svg xmlns="http://www.w3.org/2000/svg" viewBox="0 0 20 20">
  <path d="M11.54 15.92c-1.48-.65-1.28-1.05-1.33-1.59-.01-.07-.01-.15-.01-.23.51-.45.92-1.07 1.19-1.78 0 0 .01-.04.02-.05.06-.15.11-.32.15-.48.34-.07.54-.44.61-.78.08-.14.23-.48.2-.87-.05-.5-.25-.73-.47-.82v-.09c0-.63-.06-1.55-.17-2.15-.02-.17-.06-.33-.11-.5a3.7 3.7 0 0 0-1.29-1.86C9.69 4.25 8.8 4 8.01 4c-.8 0-1.69.25-2.32.73-.61.47-1.06 1.13-1.28 1.86-.05.17-.09.33-.11.5-.12.6-.18 1.51-.18 2.14v.08c-.23.09-.44.32-.49.83-.04.39.12.73.2.87.08.35.28.72.63.78q.06.255.15.48c0 .01.01.02.01.03l.01.01c.27.72.7 1.35 1.22 1.8 0 .07-.01.14-.01.21-.05.54.1.94-1.38 1.59S.75 17.26.3 18.31C-.16 19.38.02 20 .02 20h15.95s.18-.62-.27-1.67c-.46-1.06-2.68-1.75-4.16-2.41m8.15-12.63-3-3a.96.96 0 0 0-.7-.29 1.003 1.003 0 0 0-.71 1.71L16.58 3H13c-.55 0-1 .45-1 1s.45 1 1 1h3.58l-1.29 1.29c-.19.18-.3.43-.3.71a1.003 1.003 0 0 0 1.71.71l3-3c.18-.18.29-.43.29-.71s-.11-.53-.3-.71"/>
</svg>

<?xml version="1.0" encoding="utf-8"?>
<!-- Generator: Adobe Illustrator 18.0.0, SVG Export Plug-In . SVG Version: 6.00 Build 0)  -->
<svg version="1.1" id="Layer_1" xmlns="http://www.w3.org/2000/svg" xmlns:xlink="http://www.w3.org/1999/xlink" x="0px" y="0px"
	 viewBox="0 0 20 20" enable-background="new 0 0 20 20" xml:space="preserve">
<g id="follower">
	<g>
		<path fill-rule="evenodd" clip-rule="evenodd" d="M11.54,15.92c-1.48-0.65-1.28-1.05-1.33-1.59c-0.01-0.07-0.01-0.15-0.01-0.23
			c0.51-0.45,0.92-1.07,1.19-1.78c0,0,0.01-0.04,0.02-0.05c0.06-0.15,0.11-0.32,0.15-0.48c0.34-0.07,0.54-0.44,0.61-0.78
			c0.08-0.14,0.23-0.48,0.2-0.87c-0.05-0.5-0.25-0.73-0.47-0.82c0-0.03,0-0.06,0-0.09c0-0.63-0.06-1.55-0.17-2.15
			c-0.02-0.17-0.06-0.33-0.11-0.5c-0.22-0.73-0.68-1.4-1.29-1.86C9.69,4.25,8.8,4,8.01,4C7.21,4,6.32,4.25,5.69,4.73
			C5.08,5.2,4.63,5.86,4.41,6.59C4.36,6.76,4.32,6.92,4.3,7.09C4.18,7.69,4.12,8.6,4.12,9.23c0,0.03,0,0.05,0,0.08
			C3.89,9.4,3.68,9.63,3.63,10.14c-0.04,0.39,0.12,0.73,0.2,0.87c0.08,0.35,0.28,0.72,0.63,0.78c0.04,0.17,0.09,0.33,0.15,0.48
			c0,0.01,0.01,0.02,0.01,0.03l0.01,0.01c0.27,0.72,0.7,1.35,1.22,1.8c0,0.07-0.01,0.14-0.01,0.21c-0.05,0.54,0.1,0.94-1.38,1.59
			c-1.48,0.65-3.71,1.35-4.16,2.4C-0.16,19.38,0.02,20,0.02,20h15.95c0,0,0.18-0.62-0.27-1.67C15.24,17.27,13.02,16.58,11.54,15.92z
			 M19.69,3.29l-3-3C16.52,0.11,16.27,0,15.99,0c-0.55,0-1,0.45-1,1c0,0.28,0.11,0.53,0.29,0.71L16.58,3h-3.58c-0.55,0-1,0.45-1,1
			c0,0.55,0.45,1,1,1h3.58l-1.29,1.29C15.1,6.47,14.99,6.72,14.99,7c0,0.55,0.45,1,1,1c0.28,0,0.53-0.11,0.71-0.29l3-3
			c0.18-0.18,0.29-0.43,0.29-0.71C19.99,3.72,19.88,3.47,19.69,3.29z"/>
	</g>
</g>
</svg>
